media/img/shape.svg

<svg fill="none" height="31" viewBox="0 0 30 31" width="30" xmlns="http://www.w3.org/2000/svg" xmlns:xlink="http://www.w3.org/1999/xlink"><filter id="a" color-interpolation-filters="sRGB" filterUnits="userSpaceOnUse" height="29.52" width="28.4498" x=".599804" y=".800049"><feFlood flood-opacity="0" result="BackgroundImageFix"/><feColorMatrix in="SourceAlpha" result="hardAlpha" type="matrix" values="0 0 0 0 0 0 0 0 0 0 0 0 0 0 0 0 0 0 127 0"/><feOffset dy="7.2"/><feGaussianBlur stdDeviation="3.6"/><feComposite in2="hardAlpha" operator="out"/><feColorMatrix type="matrix" values="0 0 0 0 1 0 0 0 0 0.854902 0 0 0 0 0.0235294 0 0 0 0.1 0"/><feBlend in2="BackgroundImageFix" mode="normal" result="effect1_dropShadow_19_1691"/><feBlend in="SourceGraphic" in2="effect1_dropShadow_19_1691" mode="normal" result="shape"/></filter><g filter="url(#a)"><path clip-rule="evenodd" d="m15.3393 15.92c.68 0 1.2898-.4188 1.5339-1.0535.3983-1.0354 1.4659-1.6518 2.5618-1.479.6717.1059 1.3393-.2128 1.6793-.8017l.5147-.8915c.3401-.5889.2823-1.3264-.1454-1.8552-.6976-.86264-.6976-2.09546 0-2.9581.4277-.52876.4855-1.26625.1454-1.85517l-.5147-.89156c-.34-.58892-1.0076-.90761-1.6793-.80167-1.0959.17283-2.1636-.44358-2.5618-1.47905-.2441-.6347-.8539-1.053501-1.5339-1.053501h-1.0295c-.68 0-1.2898.418811-1.534 1.053511-.3982 1.03547-1.4659 1.65187-2.5617 1.47904-.67176-.10594-1.33935.21276-1.67936.80167l-.51474.89156c-.34001.58892-.28221 1.32642.14539 1.85518.69762.86263.69762 2.09545.00001 2.95809-.42761.5288-.48541 1.2663-.1454 1.8552l.51474.8915c.34001.5889 1.00761.9076 1.67936.8017 1.0958-.1728 2.1635.4436 2.5617 1.479.2442.6347.854 1.0535 1.534 1.0535zm-2.8157-7.55995c0-1.27074 1.0302-2.30087 2.3009-2.30087 1.2708 0 2.3009 1.03013 2.3009 2.30087 0 1.27073-1.0301 2.30085-2.3009 2.30085-1.2707 0-2.3009-1.03012-2.3009-2.30085z" fill="#242028" fill-rule="evenodd"/></g></svg>

<svg width="30" height="31" viewBox="0 0 30 31" fill="none" xmlns="http://www.w3.org/2000/svg">
<g filter="url(#filter0_d_19_1691)">
<path fill-rule="evenodd" clip-rule="evenodd" d="M15.3393 15.92C16.0193 15.92 16.6291 15.5012 16.8732 14.8665C17.2715 13.8311 18.3391 13.2147 19.435 13.3875C20.1067 13.4934 20.7743 13.1747 21.1143 12.5858L21.629 11.6943C21.9691 11.1054 21.9113 10.3679 21.4836 9.8391C20.786 8.97646 20.786 7.74364 21.4836 6.881C21.9113 6.35224 21.9691 5.61475 21.629 5.02583L21.1143 4.13427C20.7743 3.54535 20.1067 3.22666 19.435 3.3326C18.3391 3.50543 17.2714 2.88902 16.8732 1.85355C16.6291 1.21885 16.0193 0.800049 15.3393 0.800049H14.3098C13.6298 0.800049 13.02 1.21886 12.7758 1.85356C12.3776 2.88903 11.3099 3.50543 10.2141 3.3326C9.54234 3.22666 8.87475 3.54536 8.53474 4.13427L8.02 5.02583C7.67999 5.61475 7.73779 6.35225 8.16539 6.88101C8.86301 7.74364 8.86301 8.97646 8.1654 9.8391C7.73779 10.3679 7.67999 11.1054 8.02 11.6943L8.53474 12.5858C8.87475 13.1747 9.54235 13.4934 10.2141 13.3875C11.3099 13.2147 12.3776 13.8311 12.7758 14.8665C13.02 15.5012 13.6298 15.92 14.3098 15.92L15.3393 15.92ZM12.5236 8.36005C12.5236 7.08931 13.5538 6.05918 14.8245 6.05918C16.0953 6.05918 17.1254 7.08931 17.1254 8.36005C17.1254 9.63078 16.0953 10.6609 14.8245 10.6609C13.5538 10.6609 12.5236 9.63078 12.5236 8.36005Z" fill="#242028"/>
</g>
<defs>
<filter id="filter0_d_19_1691" x="0.599804" y="0.800049" width="28.4498" height="29.52" filterUnits="userSpaceOnUse" color-interpolation-filters="sRGB">
<feFlood flood-opacity="0" result="BackgroundImageFix"/>
<feColorMatrix in="SourceAlpha" type="matrix" values="0 0 0 0 0 0 0 0 0 0 0 0 0 0 0 0 0 0 127 0" result="hardAlpha"/>
<feOffset dy="7.2"/>
<feGaussianBlur stdDeviation="3.6"/>
<feComposite in2="hardAlpha" operator="out"/>
<feColorMatrix type="matrix" values="0 0 0 0 1 0 0 0 0 0.854902 0 0 0 0 0.0235294 0 0 0 0.1 0"/>
<feBlend mode="normal" in2="BackgroundImageFix" result="effect1_dropShadow_19_1691"/>
<feBlend mode="normal" in="SourceGraphic" in2="effect1_dropShadow_19_1691" result="shape"/>
</filter>
</defs>
</svg>
